packages/kaspersky-hexa-ui-icons/src/iconsSVGs/24/InsuranceCoverage.svg

<svg width="24" height="24" viewBox="0 0 24 24" fill="none" xmlns="http://www.w3.org/2000/svg">
<path d="M11.1745 9.61514C10.9569 9.78245 10.8694 9.96819 10.8694 10.1615C10.8694 10.3807 10.9184 10.5079 10.9676 10.5873C11.0185 10.6694 11.1058 10.7583 11.2656 10.844C11.4793 10.9585 11.6922 11 12.0756 11C12.0988 11 12.1219 11.0008 12.1447 11.0024C12.639 11.0161 13.1655 11.0955 13.721 11.3931C14.1314 11.6129 14.5061 11.9259 14.7747 12.3594C15.0449 12.7955 15.1728 13.2976 15.1728 13.8385C15.1728 14.7647 14.7008 15.4982 14.087 15.9702C13.7636 16.219 13.3916 16.4046 13 16.5231V17C13 17.5523 12.5523 18 12 18C11.4477 18 11 17.5523 11 17V16.5421C10.1801 16.3033 9.50924 15.7609 9.03047 15.0229C8.72991 14.5595 8.86186 13.9403 9.3252 13.6397C9.78853 13.3392 10.4078 13.4711 10.7084 13.9345C11.0429 14.4501 11.4623 14.677 11.9666 14.677C12.3035 14.677 12.6375 14.5619 12.8677 14.3849C13.0853 14.2176 13.1728 14.0318 13.1728 13.8385C13.1728 13.6193 13.1237 13.4921 13.0745 13.4127C13.0236 13.3306 12.9364 13.2417 12.7766 13.1561C12.5629 13.0416 12.35 13 11.9666 13C11.9433 13 11.9203 12.9992 11.8975 12.9977C11.4032 12.984 10.8766 12.9045 10.3212 12.6069C9.91082 12.3871 9.53607 12.0741 9.26751 11.6407C8.99728 11.2045 8.86942 10.7024 8.86942 10.1615C8.86942 9.23536 9.34138 8.50187 9.95514 8.02981C10.2669 7.79001 10.6239 7.60883 11 7.48997V7.00002C11 6.44773 11.4477 6.00002 12 6.00002C12.5523 6.00002 13 6.44773 13 7.00002V7.44595C13.8391 7.67822 14.5248 8.22648 15.0117 8.97715C15.3123 9.44049 15.1803 10.0597 14.717 10.3603C14.2536 10.6609 13.6344 10.5289 13.3338 10.0656C12.9993 9.54991 12.5798 9.32303 12.0756 9.32304C11.7387 9.32305 11.4046 9.4381 11.1745 9.61514Z" fill="black"/>
<path fill-rule="evenodd" clip-rule="evenodd" d="M11.0997 2.3516C11.6774 2.05174 12.3648 2.05174 12.9425 2.3516L19.5029 5.75693C19.8342 5.92892 20.0422 6.27116 20.0422 6.64448V11.8148C20.0422 12.812 19.9295 13.8914 19.5121 14.9175C18.3866 17.6846 16.6035 19.4407 15.1016 20.5022C14.3517 21.0322 13.6698 21.3908 13.1694 21.6189C12.9189 21.7331 12.7129 21.815 12.5652 21.8697C12.4914 21.8971 12.432 21.9176 12.3888 21.9321C12.3673 21.9393 12.3497 21.9449 12.3364 21.9492L12.3197 21.9544L12.3138 21.9562L12.3115 21.9569L12.3105 21.9572C12.31 21.9574 12.3096 21.9575 12.0211 21C11.7699 21.968 11.7694 21.9678 11.7689 21.9677L11.7678 21.9674L11.7653 21.9668L11.759 21.9651L11.7416 21.9603C11.7278 21.9565 11.7097 21.9514 11.6875 21.9449C11.6431 21.9318 11.5824 21.9131 11.507 21.8881C11.3562 21.8379 11.1465 21.7621 10.8919 21.6543C10.3833 21.4391 9.69148 21.0949 8.93197 20.5711C7.40804 19.5202 5.61429 17.7471 4.49525 14.8687C4.10685 13.8696 4 12.8253 4 11.8567V6.64448C4 6.27116 4.20795 5.92892 4.53929 5.75693L11.0997 2.3516ZM12.0031 19.9432C11.9119 19.9101 11.8001 19.867 11.6713 19.8125C11.2667 19.6412 10.6978 19.3594 10.0674 18.9246C8.81141 18.0585 7.30826 16.5848 6.35934 14.144C6.09439 13.4625 6 12.6911 6 11.8567V7.2521L12.0211 4.12671L18.0422 7.2521V11.8148C18.0422 12.6757 17.9422 13.4689 17.6595 14.1639C16.7076 16.5042 15.2084 17.9777 13.9473 18.869C13.3157 19.3154 12.7459 19.614 12.3399 19.799C12.209 19.8587 12.0956 19.9064 12.0031 19.9432Z" fill="black"/>
<path d="M12.0211 21L12.3105 21.9572C12.1349 22.0101 11.9473 22.014 11.7699 21.968L12.0211 21Z" fill="black"/>
</svg>

<svg xmlns="http://www.w3.org/2000/svg" width="24" height="24" fill="none" viewBox="0 0 24 24"><path fill="#000" fill-rule="evenodd" d="M12.9425 2.3516a2 2 0 0 0-1.8428 0L4.5393 5.757A1 1 0 0 0 4 6.6445v5.2121c0 .9687.1069 2.013.4953 3.0121 1.119 2.8783 2.9127 4.6515 4.4367 5.7024.7595.5238 1.4513.868 1.9599 1.0832.2546.1078.4643.1836.6151.2337.0754.0251.1361.0438.1805.0569q.0334.0097.0541.0154l.0174.0048.0063.0016.0025.0007.0011.0003c.0005.0001.0018-.003.2522-.9677l-.2512.9679c.1774.0461.365.0422.5406-.0107l.001-.0003.0023-.0007.0059-.0018.0167-.0053a3 3 0 0 0 .0524-.017 6 6 0 0 0 .1764-.0624 9 9 0 0 0 .6042-.2508c.5004-.2281 1.1823-.5867 1.9322-1.1167 1.5019-1.0615 3.285-2.8177 4.4105-5.5847.4174-1.0261.5301-2.1055.5301-3.1027V6.6445a1 1 0 0 0-.5393-.8876zm-1.2712 17.4608c.1288.0546.2406.0977.3318.1308a7.5 7.5 0 0 0 .3368-.1442c.406-.185.9758-.4836 1.6074-.93 1.2611-.8913 2.7603-2.3648 3.7122-4.7051.2827-.695.3827-1.4882.3827-2.3491V7.2521l-6.0211-3.1254L6 7.2521v4.6045c0 .8345.0944 1.6059.3593 2.2874.949 2.4408 2.4521 3.9145 3.7081 4.7806.6304.4348 1.1993.7166 1.6039.8878m-.4968-10.1972c-.2176.1673-.3051.353-.3051.5463 0 .2192.049.3464.0982.4258.0509.0821.1382.171.298.2567.2137.1144.4266.156.81.156a1 1 0 0 1 .0691.0024c.4943.0137 1.0208.0931 1.5763.3907.4104.2198.7851.5328 1.0537.9663.2702.4361.3981.9382.3981 1.4791 0 .9262-.472 1.6597-1.0858 2.1317-.3234.2488-.6954.4344-1.087.5529V17c0 .5523-.4477 1-1 1s-1-.4477-1-1v-.4579c-.8199-.2388-1.4908-.7812-1.9695-1.5192-.3006-.4634-.1686-1.0826.2947-1.3832s1.0826-.1686 1.3832.2947c.3345.5157.7539.7426 1.2582.7426.3369 0 .6709-.1151.9011-.2921.2176-.1673.3051-.3531.3051-.5464 0-.2192-.0491-.3464-.0983-.4258-.0509-.0821-.1381-.171-.2979-.2567-.2137-.1144-.4266-.156-.81-.156a1 1 0 0 1-.0691-.0023c-.4943-.0137-1.0209-.0932-1.5763-.3908-.4104-.2198-.7851-.5328-1.0537-.9663-.2702-.4361-.398-.9382-.398-1.4791 0-.9261.4719-1.6596 1.0856-2.1317.3118-.2398.6688-.421 1.0449-.5398V7c0-.5523.4477-1 1-1s1 .4477 1 1v.446c.8391.2322 1.5248.7805 2.0117 1.5312.3006.4633.1686 1.0825-.2947 1.3831s-1.0826.1686-1.3832-.2947c-.3345-.5157-.754-.7426-1.2582-.7425-.3369 0-.671.115-.9011.292"/></svg>
